!!!OTL@@DE: Der kleine Rekrut
!!!COM: K&uuml;cken, Friedrich
!!!ODT: 1855
!!!OMD: Allegretto
!!!LYR: G&uuml;ll Friedrich
!!!ONB: Str. 5 von Levin Sch&uuml;cking
!!!LDT: 1836
!!!OCL: Erk, Ludwig
!!!GCO: Deutscher Liederschatz, Band 1
**kern	**kern	**kern
*staff3	*staff2	*staff1
*Ipiano	*Ipiano	*Ivox
*>[A,B,B1,B,B2]	*>[A,B,B1,B,B2]	*>[A,B,B1,B,B2]
*>norep[A,B,B2]	*>norep[A,B,B2]	*>norep[A,B,B2]
*>A	*>A	*>A
=1-	=1-	=1-
*clefF4	*clefG2	*clefG2
*k[f#c#]	*k[f#c#]	*k[f#c#]
*D:	*D:	*D:
*M2/4	*M2/4	*M2/4
*MM118	*MM118	*MM118
8D'\L	2r	2r
8A'\	.	.
8D'\	.	.
8A\J	.	.
=2	=2	=2
8D'\L	4r	2r
8A'\	.	.
8D'\	8dd'\L	.
8A'\J	8ff#'\J	.
=3	=3	=3
8D'\L	8ff#\ 8aa\	2r
8A'\	8r	.
8D'\	8ff#\ 8aa\L	.
8A'\J	16r	.
.	16ff#\ (16aa\Jk	.
=4	=4	=4
*	*^	*
8D'\L	8bb/L)	&(8ee#\&)	2r
8G#'\	16r	8r	.
.	(16aa/Jk	.	.
8D'\	8gg#/L)	8ee#\L	.
8G#'\J	16r	16r	.
.	16bb/Jk	(16ee#\Jk	.
=5	=5	=5	=5
8D'\L	&(8aa/&)	8ff#\)	2r
8A'\	4.ryy	8r	.
8D'\	.	8ff#'\ 8aa'\L	.
8A'\J	.	8ff#'\ 8ddd'\J	.
*	*v	*v	*
=6	=6	=6
8D'\L	8dd\ 8ff#\	2r
8A'\	8r	.
8F#'\	8dd'\L	.
8G'\J	8ee'\J	.
=7	=7	=7
8A\L	4dd\ 4ff#\	2r
8AA\	.	.
8A\	8dd'\ 8ff#'\L	.
8AA\J	8dd'\ 8aa'\J	.
=8	=8	=8
8G\L	4cc#\ 4ee\	2r
8AA\	.	.
8G\	8cc#'\ 8ee'\L	.
8AA\J	8a'\ 8ff#'\J	.
=9	=9	=9
8D/L	8f#/ 8dd/	2r
8DD/	8r	.
8D/	8f#/ 8dd/	.
8DD/J	8r	.
=10	=10	=10
8D\	8f#/ 8dd/	4r
8r	8r	.
=	=	=
*>B	*>B	*>B
4r	8d'/L	8d/
.	8f#'/J	8f#/
=11	=11	=11
8D'\L	8f#'^/ 8a'^/	4a'^/
8A'\	8r	.
8D'\	8f#'^/ 8a'^/	4a'^/
8A'\J	8r	.
=12	=12	=12
8D'\L	8g'^/ 8b'^/	4b'^\
8A'\	8r	.
8D'\	8e'^/ 8g'^/ 8cc#'^/	4cc#'^\
8A'\J	8r	.
=13	=13	=13
8D\L	2f#/ (2dd/	(2dd\
8A\	.	.
8D\	.	.
8A\J	.	.
=14	=14	=14
8D\L	8f#'/ 8a'/)	8a/)
8A\	8r	8r
8D\	8f#'/ 8a'/L	8a/
8A\J	8g'/ 8b'/J	8b\
=15	=15	=15
8C#'\L	8f#/ 8a/L	8.a/
8A'\	16r	.
.	16e/ 16g/Jk	16g/
8AA'\	8e'/ 8g'/L	8g/
8A'\J	8e'/ 8g'/J	8g/
=16	=16	=16
8C#\L	4e/ 4g/	4g/
8A\	.	.
8AA\	8g'/ 8b'/L	8b\
8A\J	8f#'/ 8a'/J	8a/
=17	=17	=17
8D\L	8f#/ 8a/L	8.a^/
8A\	16r	.
.	16d/ 16f#/Jk	16f#/
8AA\	8d/ 8f#/L	8f#/
8A\J	8d/ 8f#/J	8f#/
=18	=18	=18
8D'\L	8d/ 8f#/	8f#/
8A'\	8r	8r
8D'\	8f#'/L	8f#/
8A'\J	8f#'/ 8a'/J	8a/
=19	=19	=19
8D\L	4f#/ 4dd/	4dd^\
8A\	.	.
8F#\	4f#/ 4dd/	4dd^\
8D\J	.	.
=20	=20	=20
8AA/L	4a\ 4cc#\ 4ee\	4ee^\
8E/	.	.
8C#/	4a\ 4cc#\ 4ee\	4ee^\
8AA/J	.	.
=21	=21	=21
8DD/L	2a\ 2dd\ (2ff#\	(2ff#\
8FF#/	.	.
8AA/	.	.
8D/J	.	.
=22	=22	=22
8GG/L	8g\ 8b\ 8ee\)	8ee\)
8BB/	8r	8r
8E/	8g'\ 8b'\L	8b\
8G/J	8g'\ 8b'\ 8ee'\J	8ee\
=23	=23	=23
(8AA\L	8f#/ 8a/ 8dd/	4dd\
8D\	8r	.
8F#\	8f#/ 8a/ 8dd/	4dd\
8A\J)	8r	.
=24	=24	=24
*	*^	*
(8AA/L	(8dd/L	4g\ 4a\	(8dd\L
8E/J	8cc#/J	.	8cc#\J)
4A\)	(8b/L)	4g\ 4a\	(8b\L
.	8cc#/J)	.	8cc#\J)
*	*v	*v	*
=25	=25	=25
8D'\L	[2f#/ [2a/ [2dd/	4.dd\
8A'\	.	.
8AA'\	.	.
8A'\J	.	8r
=26	=26	=26
8D\L	8f#/] 8a/] 8dd/]	4r
8A\	8r	.
8AA\	8f#'/ 8a'/L	8a/
8A\J	8f#'/ 8dd'/J	8dd\
=27	=27	=27
(8E\L	8g^/ 8dd^/L	8.dd\
8A\	16r	.
.	16g/ 16cc#/Jk	16cc#\
8AA\	8g'/ 8cc#'/L	8cc#\
8A\J)	8g'/ 8cc#'/J	8cc#\
=28	=28	=28
8E\L	4g/ 4cc#/	4cc#\
8A\	.	.
8AA\	8g'/ 8cc#'/L	8cc#\
8A\J	8g'/ 8b'/J	8b\
=29	=29	=29
8D\L	8g'/ 8b'/L	8.b\
8A\	16r	.
.	16f#/ 16a/Jk	16a/
8AA\	8f#'/ 8a'/L	8a/
8A\J	8f#'/ 8a'/J	8a/
=30	=30	=30
8D'\L	4f#/ 4a/	4a/
8A'\	.	.
8AA'\	8f#'/ 8a'/L	8a/
8A'\J	8f#'/ 8a'/J	8a/
=31	=31	=31
8C#\L	8g\ (8a\L	(8a\L
8A\	8ee\J)	8ee\J)
8AA\	8g'/ 8a'/L	8a/
8A\J	8g'/ 8a'/J	8a/
=32	=32	=32
8C#\L	8g/ 8a/	8a/
8A\	8r	8r
8AA\	8g'/ 8a'/L	8a/
8A\J	8g'/ 8a'/J	8a/
=33	=33	=33
8D\L	(8f#/ 8a/L	(8a\L
8A\	8dd/J)	8dd\J)
8AA\	8f#'/ 8a'/L	8a/
8A\J	8f#'/ 8a'/J	8a/
=34	=34	=34
8D\L	8f#/ 8a/	8a/
8A\	8r	8r
8AA\	8f#'/ 8a'/L	8a/
8A\J	8f#'/ 8dd'/J	8dd\
=35	=35	=35
8E\L	8g^/ 8dd^/L	8.dd\
8A\	16r	.
.	16g/ 16cc#/Jk	16cc#\
8AA\	8g'/ 8cc#'/L	8cc#'\
8A\J	8g'/ 8cc#'/J	8cc#\
=36	=36	=36
8E\L	4g/ 4cc#/	4cc#\
8A\	.	.
8AA\	8g'/ 8cc#'/L	8cc#\
8A\J	8g'/ 8b'/J	8b\
=37	=37	=37
8D\L	8g'/ 8b'/L	8.b\
8A\	16r	.
.	16f#/ 16a/Jk	16a/
8AA\	8f#'/ 8a'/L	8a/
8A\J	8f#'/ 8a'/J	8a/
=38	=38	=38
8D\L	4f#/ 4a/	8a/
8A\J	.	8r
8D\ 8F#\ 8A\	8f#/ 8a/L	8a/
8r	8d/J	8a/
=39	=39	=39
8GG/ 8G/	8g/ 8b/L	8b\
8r	8d/	8b\
8FF#/ 8F#/	8a#/ 8cc#/	8cc#\
8r	8f#/J	8cc#\
=40	=40	=40
8BB\ 8B\	8b\ 8dd\L	8dd\
8r	8f#\	8dd\
8AAn\ 8An\	8cc#\ 8ee\	8ee\
8r	8a\J	8ee\
=41	=41	=41
8D\ 8d\	8a\ 8dd\ 8ff#\	[2ff#\
(8D\L	(8dd\L	.
8E\	8cc#\	.
8F#\J)	8ccn\J)	.
=42	=42	=42
(8G\L	(8b\L	8ff#\L]
8GG'\J)	8gg'\J)	8gg\J
4r	8g'\ 8b'\L	8b\
.	8g'\ 8ee'\J	8ee\
=43	=43	=43
8AA\L	8f#/ 8dd/	8dd\
8D\ 8F#\ 8A\	8r	8r
8AA\	8f#'/L	8f#/
8D\ 8F#\ 8A\J	8b'/J	8b\
=44	=44	=44
8AA\L	8a/	8a/
8C#\ 8G\	8r	8r
8AA\	8e'/L	8e/
8C#\ 8G\J	8f#'/J	8f#/
=45	=45	=45
8D\L	8d/	4d/
8F#\ 8A\	8r	.
8D\	8dd'\L	4r
8F#\ 8A\J	8ddd'\J	.
=46	=46	=46
8D\L	4dd\ 4ddd\	2r
8E#\ 8G\ 8B#\	.	.
8D\	8dd'\ 8gg#'\L	.
8E#\ 8G\ 8B#\J	8dd'\ 8bb'\J	.
=47	=47	=47
8D\L	4dd\ 4aa\	2r
8F#\ 8A\	.	.
8D\	8dd'\L	.
8F#\ 8A\J	8ddd'\J	.
=48	=48	=48
8D\L	4dd\ 4ddd\	2r
8E#\ 8G#\ 8B\	.	.
8D\	8dd'\ 8gg#'\L	.
8E#\ 8G#\ 8B\J	8dd'\ 8bb'\J	.
=49	=49	=49
8D\ 8F#\ 8A\	8dd\ 8aa\	2r
8r	8r	.
8DD/ 8D/L	8d/ 8dd/L	.
8EE/ 8E/J	8e/ 8ee/J	.
=50	=50	=50
!! track assignment problem, so have to exchange spines.
8f#\ 8ff#\	2r	8FF#/ 8F#/
8r	.	8r
8cc#'\ 8ee'\ 8ff#'\ 8aa#'\	.	8F#'\ 8A#'\ 8c#'\ 8e'\
8r	.	8r
=51	=51	=51
8b'\ 8dd'\ 8ff#'\ 8bb'\	2r	8BB'\ 8D'\ 8F#'\ 8B'\
8r	.	8r
8e'/L	.	8GG'/L
8b'/J	.	8BB'/ 8E'/J
=52	=52	=52
8d/ 8f#/ 8a/	2r	8AA\L
8r	.	8D\ 8F#\ 8A\
8e'/L	.	8AA\
8f#'/J	.	8C#\ 8G\J
=53	=53	=53
*>B1	*>B1	*>B1
8d/	2r	8D\ 8F#\
8r	.	8r
8dd\ 8ff#\ 8ddd\	.	8D\ 8F#\ 8A\ 8d\
8r	.	8r
=54	=54	=54
*>B2	*>B2	*>B2
8d/	2r	8D\ 8F#\
8r	.	8r
8dd\ 8ff#\ 8ddd\	.	8D\ 8F#\ 8A\ 8d\
8r	.	8r
=55	=55	=55
*	*	*^
8d/	4r	8F#/ 8A/	8DD\ 8FF#\ 8AA\ 8D\
8r	.	8ryy	8r
*	*	*v	*v
=	=	=
*-	*-	*-
!!!ENC: Craig Stuart Sapp
!!!END: 2004/06/27/
!!!EFL: 166/651
